X:246
T:Faustus. JaW.246
M:6/8
L:1/8
Q:3/8=110
S:James Winder Ms, Lancashire, 1835-41
R:.Quadrille
O:England
A:Wyresdale,Lancashire
Z:vmp.Chris Partington, Aug 2004
K:D
F/G/|”$”AAA AAA|[A2f2] d A2F|GBG FAF|Eed cBA|!
AAA AAA|[A2f2]d A2F|Ged cBc|d2D D2||!
c/d/|eee ecA|ffe def|eee ecA|dfe d2c/d/|!
eee ecA|aaa a^gf|eae dcB|” DC”AFG AFG|]

